public/assets/icons/svg/stat/action.svg

<svg fill="none" height="24" viewBox="0 0 24 24" width="24" xmlns="http://www.w3.org/2000/svg" xmlns:xlink="http://www.w3.org/1999/xlink"><mask id="a" fill="#fff"><path clip-rule="evenodd" d="m9.81514 14.5859c-.4206-19.84556 29.77416-18.67285 21.76186 1.2941-.4782-10.95091-9.6275-14.17487-14.0013-8.87931.0279-.00029.0558-.00044.0838-.00044.7952 0 1.5628.11826 2.2861.33816.0353.0015.0699.00799.1039.01967.0352.01567.0703.0314.1054.04718.8008.26834 1.544.66229 2.2062 1.15844 16.1908 9.8661.3528 34.4483-12.73978 17.7721 9.60608 5.0005 16.91218-1.1001 14.77268-7.4538-.8949 1.4911-2.271 2.6605-3.9136 3.2934-16.53083 8.7206-29.6781-17.05789-8.788-20.04426-9.14957 5.82899-7.49764 15.22926-.8967 16.52736-.3764-.6768-.6556-1.415-.81882-2.1959-.02393-.0384-.04046-.0799-.04916-.1247-.01199-.1134-.02303-.2261-.03314-.3382-.05518-.3756-.08376-.7599-.08376-1.1508 0-.088.00145-.1757.00432-.263z" fill="#fff" fill-rule="evenodd"/></mask><path clip-rule="evenodd" d="m7.0455256 10.919193c-.292867-13.8186074 20.7319634-13.0020409 15.1529414.901092-.332974-7.6251982-6.703698-9.8700655-9.749207-6.182729.01943-.0002013.03886-.0003059.05835-.0003059.553704 0 1.088189.082349 1.591828.2354629.02458.00104.04867.00555.07234.013697.02451.010973.04895.021868.07339.032854.557602.1868476 1.075099.4611574 1.536193.8066301 11.273776 6.8698379.245661 23.9866029-8.8707976 12.3748429 6.6887826 3.481884 11.7760736-.766008 10.2863246-5.190135-.623126 1.038264-1.581314 1.852526-2.725069 2.293218-11.5105321 6.072214-20.6650718-11.8775353-6.1191427-13.9569667-6.3709127 4.0587688-5.2206622 10.6042447-.6243795 11.5081207-.2620898-.47126-.4564984-.985274-.5701499-1.52902-.016666-.02674-.028168-.05564-.034236-.08683-.00839-.07897-.016033-.157435-.023082-.235492-.038418-.261533-.058325-.529124-.058325-.80131 0-.06128.00101-.122342.00297-.18313z" fill="#2196f3" fill-rule="evenodd" stroke-width=".696307"/><path d="m31.577 15.88-.999.0437 1.9271.3288zm-21.76186-1.2941.99946.0329.0009-.027-.0006-.0271zm7.76056-7.58521-.771-.63681-1.3705 1.65927 2.1519-.02251zm2.3699.33772-.2908.95677.1215.03695.1269.00538zm.1039.01967.4061-.9138-.0396-.01762-.041-.01411zm.1054.04718-.411.91167.0457.02059.0475.01592zm2.2062 1.15844-.5997.80029.0384.02873.0409.02492zm-12.73978 17.7721.46178-.887-1.24833 1.5046zm14.77268-7.4538.9477-.3191-.6909-2.052-1.1142 1.8565zm-3.9136 3.2934-.3596-.9332-.0549.0212-.0521.0275zm-8.788-20.04426.5373.84338-.6789-1.83332zm-.8967 16.52736-.1929.9812 2.1142.4158-1.0474-1.8831zm-.81882-2.1959.97882-.2045-.0362-.1736-.0938-.1506zm-.04916-.1247-.99446.1051.00456.0432.00828.0426zm-.03314-.3382.99592-.0898-.0025-.0279-.004-.0277zm22.61052.2528c2.0843-5.1944 1.7575-9.37464-.1693-12.33457-1.9127-2.938398-5.2578-4.447953-8.7454-4.613543-3.4918-.165788-7.2378 1.003016-10.0926 3.558413-2.876 2.57436-4.79341 6.50784-4.68243 11.7443l1.99953-.0424c-.0993-4.68632 1.5999-8.04834 4.0168-10.2117 2.438-2.18231 5.661-3.19343 8.6638-3.05086 3.007.14276 5.682 1.42985 7.1642 3.70688 1.4681 2.2555 1.911 5.70948-.0108 10.49858zm-14.1584-8.61499c1.8665-2.25987 4.7243-2.71194 7.2272-1.40339 2.5096 1.31204 4.7768 4.48618 5.0041 9.68958l1.9981-.0873c-.251-5.7476-2.7975-9.66088-6.0756-11.37467-3.2847-1.71728-7.1885-1.13355-9.6958 1.90215zm-.7606.36313c.0245-.00026.049-.00039.0734-.00039v-2c-.0315 0-.063.00017-.0943.0005zm.0734-.00039c.6956 0 1.3652.10338 1.9953.29493l.5817-1.91353c-.8166-.24825-1.6822-.3814-2.577-.3814zm2.7155-1.5877c-.1256-.04323-.2556-.06766-.387-.07324l-.0848 1.9982c-.0608-.00258-.1216-.01403-.1792-.03389zm.1908.08104c-.0366-.0165-.0733-.03294-.1102-.04931l-.8123 1.82761c.0337.01496.0672.02997.1006.04504zm-.7287 1.85985c.6979.23385 1.3462.57735 1.9243 1.01055l1.1993-1.60058c-.7463-.55911-1.5844-1.0035-2.4881-1.30633zm-11.00233 18.59996c3.40563 4.3378 7.12913 6.1564 10.61433 6.0275 3.4635-.1281 6.4317-2.172 8.3523-5.0185 3.8412-5.6929 3.7358-14.9781-4.92-20.25265l-1.0407 1.70789c7.535 4.59156 7.6061 12.53046 4.3028 17.42616-1.6516 2.4479-4.0858 4.0393-6.7683 4.1385-2.6607.0984-5.8267-1.2637-8.9673-5.264zm14.61153-7.7523c.9104 2.7035-.1654 5.345-2.5573 6.8134-2.3965 1.4713-6.2417 1.8103-10.8059-.5657l-.92352 1.7741c5.04182 2.6245 9.65272 2.4134 12.77582.4961 3.1278-1.9202 4.6355-5.5059 3.4063-9.1561zm.0903-.8337c-.7815 1.3022-1.9835 2.323-3.4158 2.8748l.7191 1.8663c1.8529-.7139 3.4033-2.0318 4.4116-3.7119zm-3.5228 2.9235c-7.6866 4.0549-14.5222.1186-17.05828-5.1793-1.26716-2.6471-1.40906-5.533-.14621-7.89008 1.25314-2.33894 4.01331-4.38406 9.02459-5.10045l-.2831-1.97987c-5.43373.77679-8.86392 3.07388-10.50441 6.1358-1.630777 3.0438-1.369581 6.6174.10517 9.6981 2.94774 6.1579 10.95114 10.7504 19.79534 6.0848zm-8.8587-20.00315c-4.80224 3.05939-6.92392 7.16714-6.81707 10.83525.10703 3.6739 2.47364 6.7711 6.26477 7.5167l.3859-1.9624c-2.80989-.5526-4.56972-2.8045-4.65152-5.6125-.08196-2.81381 1.54516-6.32067 5.89252-9.09028zm.5145 16.88465c-.3283-.5903-.5716-1.2338-.7139-1.9143l-1.95767.4091c.18415.8812.49926 1.7141.92378 2.4774zm-2.7235-1.6436c.03243.1667.09475.3225.18197.4625l1.69763-1.0574c.0394.0632.0686.1359.0836.2131zm-.04748-.4394c.01057.1173.02211.2352.03464.3536l1.98894-.2103c-.0115-.1082-.022-.2158-.0317-.3228zm1.98538-.2351c-.0482-.3276-.0732-.6633-.0732-1.0054h-1.99998c0 .4397.03215.8725.09438 1.2961zm-.0732-1.0054c0-.077.0013-.1537.0038-.2301l-1.99891-.0658c-.00324.0983-.00487.1969-.00487.2959z" fill="#4f4f4f" mask="url(#a)" transform="matrix(.69630727 0 0 .69630727 .211271 .762913)"/></svg>

<svg width="33" height="32" viewBox="0 0 33 32" fill="none" xmlns="http://www.w3.org/2000/svg">
<mask id="path-1-inside-1" fill="white">
<path fill-rule="evenodd" clip-rule="evenodd" d="M9.81514 14.5859C9.39454 -5.25966 39.5893 -4.08695 31.577 15.88C31.0988 4.92909 21.9495 1.70513 17.5757 7.00069C17.6036 7.0004 17.6315 7.00025 17.6595 7.00025C18.4547 7.00025 19.2223 7.11851 19.9456 7.33841C19.9809 7.33991 20.0155 7.3464 20.0495 7.35808C20.0847 7.37375 20.1198 7.38948 20.1549 7.40526C20.9557 7.6736 21.6989 8.06755 22.3611 8.5637C38.5519 18.4298 22.7139 43.012 9.62132 26.3358C19.2274 31.3363 26.5335 25.2357 24.394 18.882C23.4991 20.3731 22.123 21.5425 20.4804 22.1754C3.94957 30.896 -9.1977 5.11751 11.6924 2.13114C2.54283 7.96013 4.19476 17.3604 10.7957 18.6585C10.4193 17.9817 10.1401 17.2435 9.97688 16.4626C9.95295 16.4242 9.93642 16.3827 9.92772 16.3379C9.91573 16.2245 9.90469 16.1118 9.89458 15.9997C9.8394 15.6241 9.81082 15.2398 9.81082 14.8489C9.81082 14.7609 9.81227 14.6732 9.81514 14.5859Z"/>
</mask>
<path fill-rule="evenodd" clip-rule="evenodd" d="M9.81514 14.5859C9.39454 -5.25966 39.5893 -4.08695 31.577 15.88C31.0988 4.92909 21.9495 1.70513 17.5757 7.00069C17.6036 7.0004 17.6315 7.00025 17.6595 7.00025C18.4547 7.00025 19.2223 7.11851 19.9456 7.33841C19.9809 7.33991 20.0155 7.3464 20.0495 7.35808C20.0847 7.37375 20.1198 7.38948 20.1549 7.40526C20.9557 7.6736 21.6989 8.06755 22.3611 8.5637C38.5519 18.4298 22.7139 43.012 9.62132 26.3358C19.2274 31.3363 26.5335 25.2357 24.394 18.882C23.4991 20.3731 22.123 21.5425 20.4804 22.1754C3.94957 30.896 -9.1977 5.11751 11.6924 2.13114C2.54283 7.96013 4.19476 17.3604 10.7957 18.6585C10.4193 17.9817 10.1401 17.2435 9.97688 16.4626C9.95295 16.4242 9.93642 16.3827 9.92772 16.3379C9.91573 16.2245 9.90469 16.1118 9.89458 15.9997C9.8394 15.6241 9.81082 15.2398 9.81082 14.8489C9.81082 14.7609 9.81227 14.6732 9.81514 14.5859Z" fill="#2196F3"/>
<path d="M31.577 15.88L30.578 15.9237L32.5051 16.2525L31.577 15.88ZM9.81514 14.5859L10.8146 14.6188L10.8155 14.5918L10.8149 14.5647L9.81514 14.5859ZM17.5757 7.00069L16.8047 6.36388L15.4342 8.02315L17.5861 8.00064L17.5757 7.00069ZM19.9456 7.33841L19.6548 8.29518L19.7763 8.33213L19.9032 8.33751L19.9456 7.33841ZM20.0495 7.35808L20.4556 6.44428L20.416 6.42666L20.375 6.41255L20.0495 7.35808ZM20.1549 7.40526L19.7439 8.31693L19.7896 8.33752L19.8371 8.35344L20.1549 7.40526ZM22.3611 8.5637L21.7614 9.36399L21.7998 9.39272L21.8407 9.41764L22.3611 8.5637ZM9.62132 26.3358L10.0831 25.4488L8.83477 26.9534L9.62132 26.3358ZM24.394 18.882L25.3417 18.5629L24.6508 16.5109L23.5366 18.3674L24.394 18.882ZM20.4804 22.1754L20.1208 21.2422L20.0659 21.2634L20.0138 21.2909L20.4804 22.1754ZM11.6924 2.13114L12.2297 2.97452L11.5508 1.1412L11.6924 2.13114ZM10.7957 18.6585L10.6028 19.6397L12.717 20.0555L11.6696 18.1724L10.7957 18.6585ZM9.97688 16.4626L10.9557 16.2581L10.9195 16.0845L10.8257 15.9339L9.97688 16.4626ZM9.92772 16.3379L8.93326 16.443L8.93782 16.4862L8.9461 16.5288L9.92772 16.3379ZM9.89458 15.9997L10.8905 15.9099L10.888 15.882L10.884 15.8543L9.89458 15.9997ZM32.5051 16.2525C34.5894 11.0581 34.2626 6.87786 32.3358 3.91793C30.4231 0.979532 27.078 -0.530023 23.5904 -0.695613C20.0986 -0.861401 16.3526 0.307403 13.4978 2.8628C10.6218 5.43716 8.70439 9.37064 8.81537 14.6071L10.8149 14.5647C10.7156 9.87838 12.4148 6.51636 14.8317 4.353C17.2697 2.17069 20.4927 1.15957 23.4955 1.30214C26.5025 1.4449 29.1775 2.73199 30.6597 5.00902C32.1278 7.26452 32.5707 10.7185 30.6489 15.5076L32.5051 16.2525ZM18.3467 7.63751C20.2132 5.37764 23.071 4.92557 25.5739 6.23412C28.0835 7.54616 30.3507 10.7203 30.578 15.9237L32.5761 15.8364C32.3251 10.0888 29.7786 6.17552 26.5005 4.46173C23.2158 2.74445 19.312 3.32818 16.8047 6.36388L18.3467 7.63751ZM17.5861 8.00064C17.6106 8.00038 17.6351 8.00025 17.6595 8.00025V6.00025C17.628 6.00025 17.5965 6.00042 17.5652 6.00075L17.5861 8.00064ZM17.6595 8.00025C18.3551 8.00025 19.0247 8.10363 19.6548 8.29518L20.2365 6.38165C19.4199 6.1334 18.5543 6.00025 17.6595 6.00025V8.00025ZM20.375 6.41255C20.2494 6.36932 20.1194 6.34489 19.988 6.33931L19.9032 8.33751C19.8424 8.33493 19.7816 8.32348 19.724 8.30362L20.375 6.41255ZM20.5658 6.49359C20.5292 6.47709 20.4925 6.46065 20.4556 6.44428L19.6433 8.27189C19.677 8.28685 19.7105 8.30186 19.7439 8.31693L20.5658 6.49359ZM19.8371 8.35344C20.535 8.58729 21.1833 8.93079 21.7614 9.36399L22.9607 7.76341C22.2144 7.2043 21.3763 6.75991 20.4726 6.45708L19.8371 8.35344ZM8.83477 26.9534C12.2404 31.2912 15.9639 33.1098 19.4491 32.9809C22.9126 32.8528 25.8808 30.8089 27.8014 27.9624C31.6426 22.2695 31.5372 12.9843 22.8814 7.70975L21.8407 9.41764C29.3757 14.0092 29.4468 21.9481 26.1435 26.8438C24.4919 29.2917 22.0577 30.8831 19.3752 30.9823C16.7145 31.0807 13.5485 29.7186 10.4079 25.7183L8.83477 26.9534ZM23.4463 19.2011C24.3567 21.9046 23.2809 24.5461 20.889 26.0145C18.4925 27.4858 14.6473 27.8248 10.0831 25.4488L9.15958 27.2229C14.2014 29.8474 18.8123 29.6363 21.9354 27.719C25.0632 25.7988 26.5709 22.2131 25.3417 18.5629L23.4463 19.2011ZM23.5366 18.3674C22.7551 19.6696 21.5531 20.6904 20.1208 21.2422L20.8399 23.1085C22.6928 22.3946 24.2432 21.0767 25.2515 19.3966L23.5366 18.3674ZM20.0138 21.2909C12.3272 25.3458 5.4916 21.4095 2.95552 16.1116C1.68836 13.4645 1.54646 10.5786 2.80931 8.22152C4.06245 5.88258 6.82262 3.83746 11.8339 3.12107L11.5508 1.1412C6.11707 1.91799 2.68688 4.21508 1.04639 7.277C-0.584387 10.3208 -0.323191 13.8944 1.15156 16.9751C4.0993 23.133 12.1027 27.7255 20.9469 23.0599L20.0138 21.2909ZM11.1551 1.28775C6.35286 4.34714 4.23118 8.45489 4.33803 12.123C4.44506 15.7969 6.81167 18.8941 10.6028 19.6397L10.9887 17.6773C8.17881 17.1247 6.41898 14.8728 6.33718 12.0648C6.25522 9.25099 7.88234 5.74413 12.2297 2.97452L11.1551 1.28775ZM11.6696 18.1724C11.3413 17.5821 11.098 16.9386 10.9557 16.2581L8.99803 16.6672C9.18218 17.5484 9.49729 18.3813 9.92181 19.1446L11.6696 18.1724ZM8.9461 16.5288C8.97853 16.6955 9.04085 16.8513 9.12807 16.9913L10.8257 15.9339C10.8651 15.9971 10.8943 16.0698 10.9093 16.147L8.9461 16.5288ZM8.89862 16.0894C8.90919 16.2067 8.92073 16.3246 8.93326 16.443L10.9222 16.2327C10.9107 16.1245 10.9002 16.0169 10.8905 15.9099L8.89862 16.0894ZM10.884 15.8543C10.8358 15.5267 10.8108 15.191 10.8108 14.8489H8.81082C8.81082 15.2886 8.84297 15.7214 8.9052 16.145L10.884 15.8543ZM10.8108 14.8489C10.8108 14.7719 10.8121 14.6952 10.8146 14.6188L8.81569 14.553C8.81245 14.6513 8.81082 14.7499 8.81082 14.8489H10.8108Z" fill="#4F4F4F" mask="url(#path-1-inside-1)"/>
</svg>
